!! 00000] TT[WS
!!!OTL: Zhai huajiao
!!!ARE: Asia, China,ÿShanxi Zouqiuan
!! Ethnic Group: Han
!! WI, 69 (2)
!!!SCT: J0082
!!!YEM: Copyright 1995, estate of Helmut Schaffrath.
**kern
*ICvox
*Ivox
*M2/4
*k[f#c#g#]
*A:
{8ee
16cc#
16ee
8.b
16cc#
=1
16ee
16ff#
16cc#
16ee
8b
16cc#
16b
=2
8.a
16b
8ee
16cc#
16b
=3
16cc#
16b
16b
16f#
4a}
=4
{8.a
16b
8ee
16cc#
16ee
=5
8b
8ee
16b
16cc#
16b
16a
=6
16e
16f#
8a
16cc#
16b
16a
16g#
=7
16g#
16f#
16f#
16c#
4e}
=8
{16a
16b
16cc#
16ee
16b
16cc#
16b
16a
=9
16e
16f#
8a
16cc#
16b
16a
16g#
=10
16g#
16f#
16f#
16c#
4e}
==
!!!AGN: Xiaodiao. Laodong, Shouhuo
!!!ONB: ESAC (Essen Associative Code) Database: CHINA
!!!AMT: simple duple
!!!AIN: vox
!!!EED: Helmut Schaffrath
!!!EEV: 1.0
*-
